X: 106
T: John Finlay
T: Reel, D Mixolydian
C: Donald Riddle
L: 1/16
M: C|
K: D Mixolydian
a2 |: f2d2 d1d1d2 d4A2B2| c4c2G2 E2C2C2E2| D2D2 D1D1D2 D4f2g2| a2f2g2e2 [1 d2a2g2e2:| [2 d4|]
e2f2| g2e2 e1e1e2 e4a2g2| f2d2 d1d1d2 d4e2f2| g2f2e2d2 c2d2e2d2| c2A2 A1A1A2 A4A2c2| 
B2G2 G1G1G2 G4d2B2| A2F2D2F2 A2d2^c2B2| A2B2^c2d2 e2f2g2b2| a2f2g2e2 d6|| 
D: Buddy MacMaster, Glencoe Hall, BM-91
